NotoEmoji/emoji_u1f3a6.svg

<svg enable-background="new 0 0 128 128" viewBox="0 0 128 128" xmlns="http://www.w3.org/2000/svg"><path d="m116 4h-104c-4.42 0-8 3.58-8 8v104c0 4.42 3.58 8 8 8h104c4.42 0 8-3.58 8-8v-104c0-4.42-3.58-8-8-8z" fill="#f77e00"/><path d="m109.7 4h-98.2c-4.13.03-7.47 3.37-7.5 7.5v97.9c-.01 4.14 3.34 7.49 7.48 7.5h.02 98.1c4.14.01 7.49-3.34 7.5-7.48 0-.01 0-.01 0-.02v-97.9c.09-4.05-3.13-7.41-7.18-7.5-.07 0-.15 0-.22 0z" fill="#ff9800"/><path d="m39.7 12.9c0-2.3-1.6-3-10.8-2.7-7.7.3-11.5 1.2-13.8 4s-2.9 8.5-3 15.3c0 4.8 0 9.3 2.5 9.3 3.4 0 3.4-7.9 6.2-12.3 5.4-8.7 18.9-10.6 18.9-13.6z" fill="#ffbd52" opacity=".75"/><g fill="#fafafa"><path d="m99.1 61.5h-47.2c-3.13.03-5.67 2.57-5.7 5.7v9.4l-21-14.7c-1.88-.94-4.16-.18-5.1 1.7-.26.53-.4 1.11-.4 1.7v37.7c.03 2.12 1.78 3.81 3.9 3.78.55-.01 1.1-.14 1.6-.38l21-14.7v9.4c0 3.15 2.55 5.7 5.7 5.7h47.2c3.13-.03 5.67-2.57 5.7-5.7v-34c-.04-3.11-2.59-5.61-5.7-5.6z"/><circle cx="58.8" cy="41.7" r="20.5"/><circle cx="93.9" cy="47.9" r="14.4"/></g></svg>

<?xml version="1.0" encoding="utf-8"?>
<!-- Generator: Adobe Illustrator 25.2.3, SVG Export Plug-In . SVG Version: 6.00 Build 0)  -->
<svg version="1.1" id="Layer_2" xmlns="http://www.w3.org/2000/svg" xmlns:xlink="http://www.w3.org/1999/xlink" x="0px" y="0px"
	 viewBox="0 0 128 128" style="enable-background:new 0 0 128 128;" xml:space="preserve">
<path style="fill:#F77E00;" d="M116,4H12c-4.42,0-8,3.58-8,8v104c0,4.42,3.58,8,8,8h104c4.42,0,8-3.58,8-8V12
	C124,7.58,120.42,4,116,4z"/>
<path style="fill:#FF9800;" d="M109.7,4H11.5C7.37,4.03,4.03,7.37,4,11.5v97.9c-0.01,4.14,3.34,7.49,7.48,7.5c0.01,0,0.01,0,0.02,0
	h98.1c4.14,0.01,7.49-3.34,7.5-7.48c0-0.01,0-0.01,0-0.02V11.5c0.09-4.05-3.13-7.41-7.18-7.5C109.85,4,109.77,4,109.7,4z"/>
<path style="opacity:0.75;fill:#FFBD52;enable-background:new    ;" d="M39.7,12.9c0-2.3-1.6-3-10.8-2.7c-7.7,0.3-11.5,1.2-13.8,4
	s-2.9,8.5-3,15.3c0,4.8,0,9.3,2.5,9.3c3.4,0,3.4-7.9,6.2-12.3C26.2,17.8,39.7,15.9,39.7,12.9z"/>
<path style="fill:#FAFAFA;" d="M99.1,61.5H51.9c-3.13,0.03-5.67,2.57-5.7,5.7v9.4l-21-14.7c-1.88-0.94-4.16-0.18-5.1,1.7
	c-0.26,0.53-0.4,1.11-0.4,1.7V103c0.03,2.12,1.78,3.81,3.9,3.78c0.55-0.01,1.1-0.14,1.6-0.38l21-14.7v9.4c0,3.15,2.55,5.7,5.7,5.7
	h47.2c3.13-0.03,5.67-2.57,5.7-5.7v-34C104.76,63.99,102.21,61.49,99.1,61.5z"/>
<circle style="fill:#FAFAFA;" cx="58.8" cy="41.7" r="20.5"/>
<circle style="fill:#FAFAFA;" cx="93.9" cy="47.9" r="14.4"/>
</svg>
